X: 1115
T: The Gudgeon of Maurice's Car
R:double jig
N:"collected by Conners"
B:O'Neill's 1115
Z:Transcribed by henrik.norbeck@mailbox.swipnet.se
M:6/8
L:1/8
K:G
(d/c/)|BAG Bcd|edc Bcd|BAG Bcd|ecA A2(d/c/)|
BAG Bcd|edc Bcd|(e/f/g)d ecA|BGG G2:|
|:G|GBd Tg2d|edc Bcd|GBd Tg2d|ecA A2(d/c/)|
BAG Tg2d|edc Bcd|(e/f/g)d ecA|BGG G2:|
